icon/ir/spades.svg

<svg viewBox="0 0 24 24" stroke-width="1.5" fill="none" xmlns="http://www.w3.org/2000/svg" height="1em" width="1em">
  <path d="M12 14.5C15 19 21 18.9706 21 14C21 10 17 7 12 2C7 7 3 10 3 14C3 18.9706 9 19 12 14.5Z" stroke="currentColor" stroke-linecap="round" stroke-linejoin="round"/>
  <path d="M11.4706 15.4926L8.47059 21.1176C8.25743 21.5173 8.54705 22 9 22H15C15.453 22 15.7426 21.5173 15.5294 21.1176L12.5294 15.4926C12.3035 15.0691 11.6965 15.0691 11.4706 15.4926Z" stroke="currentColor" stroke-linecap="round"/>
</svg>

<svg width="24" height="24" stroke-width="1.5" fill="none" xmlns="http://www.w3.org/2000/svg"><path d="M12 14.5c3 4.5 9 4.47 9-.5 0-4-4-7-9-12-5 5-9 8-9 12 0 4.97 6 5 9 .5Z" stroke="currentColor" stroke-linecap="round" stroke-linejoin="round"/><path d="m11.47 15.493-3 5.625A.6.6 0 0 0 9 22h6a.6.6 0 0 0 .53-.882l-3-5.625a.6.6 0 0 0-1.06 0Z" stroke="currentColor" stroke-linecap="round"/></svg>
